Delta/places/scalable/folder-camera.svg

<svg xmlns="http://www.w3.org/2000/svg" width="192" height="192" viewBox="0 0 192 192">
  <g fill="none" fill-rule="evenodd">
    <rect width="152" height="152" x="20" y="20" fill="#F8C18C" rx="10"/>
    <path fill="#000" fill-opacity=".25" d="M172 55.0690859L172 30.0025173C172 24.4770034 167.52172 20 161.997483 20L30.0025173 20C24.4770034 20 20 24.4782795 20 30.0025173L20 41.8667526C20.5977376 36.877596 24.8600859 33 29.9984742 33L63.5667725 33C72.0254898 33 75.1405393 46.256422 78.9328151 46.256422L161.997289 46.256422C167.120475 46.256422 171.374434 50.1039341 172 55.0690882L172 55.0690859zM96.28125 122.035211C99.7241495 122.035211 102.677952 120.802828 105.142749 118.338024 107.607552 115.873228 108.839935 112.919425 108.839935 109.476526 108.839935 106.033626 107.607552 103.079823 105.142749 100.615027 102.677952 98.1502235 99.7241495 96.9178404 96.28125 96.9178404 92.8383505 96.9178404 89.8845477 98.1502235 87.4197514 100.615027 84.9549477 103.079823 83.7225646 106.033626 83.7225646 109.476526 83.7225646 112.919425 84.9549477 115.873228 87.4197514 118.338024 89.8845477 120.802828 92.8383505 122.035211 96.28125 122.035211zM88.7695129 84.4765258L103.792987 84.4765258 108.370452 89.4061033 116.351673 89.4061033C117.681881 89.4061033 118.836022 89.914708 119.814118 90.9319249 120.792206 91.9491418 121.28125 93.1228432 121.28125 94.4530516L121.28125 124.5C121.28125 125.83021 120.792206 127.003908 119.814118 128.021127 118.836022 129.038346 117.681881 129.546948 116.351673 129.546948L76.2108275 129.546948C74.8806175 129.546948 73.7264819 129.038346 72.7483862 128.021127 71.7702905 127.003908 71.28125 125.83021 71.28125 124.5L71.28125 94.4530516C71.28125 93.1228432 71.7702905 91.9491418 72.7483862 90.9319249 73.7264819 89.914708 74.8806175 89.4061033 76.2108275 89.4061033L84.1920481 89.4061033 88.7695129 84.4765258zM88.3000293 109.476526C88.3000293 107.285592 89.0824969 105.407673 90.6474472 103.842723 92.2123974 102.277773 94.0903167 101.495305 96.28125 101.495305 98.4721833 101.495305 100.350103 102.277773 101.915053 103.842723 103.480003 105.407673 104.262471 107.285592 104.262471 109.476526 104.262471 111.667459 103.480003 113.545378 101.915053 115.110329 100.350103 116.675279 98.4721833 117.457746 96.28125 117.457746 94.0903167 117.457746 92.2123974 116.675279 90.6474472 115.110329 89.0824969 113.545378 88.3000293 111.667459 88.3000293 109.476526z"/>
  </g>
</svg>

<svg width="192" height="192" version="1.1" viewBox="0 0 192 192" xmlns="http://www.w3.org/2000/svg">
 <rect x="20" y="20" width="152" height="152" rx="10" style="fill-rule:evenodd;fill:#f8c18c"/>
 <path d="m172 55.069v-25.067c0-5.5255-4.4783-10.003-10.003-10.003h-131.99c-5.5255 0-10.003 4.4783-10.003 10.003v11.864c0.59774-4.9892 4.8601-8.8668 9.9985-8.8668h33.568c8.4587 0 11.574 13.256 15.366 13.256h83.064c5.1232 0 9.3771 3.8475 10.003 8.8127zm-75.719 66.966c3.4429 0 6.3967-1.2324 8.8615-3.6972 2.4648-2.4648 3.6972-5.4186 3.6972-8.8615s-1.2324-6.3967-3.6972-8.8615c-2.4648-2.4648-5.4186-3.6972-8.8615-3.6972s-6.3967 1.2324-8.8615 3.6972c-2.4648 2.4648-3.6972 5.4186-3.6972 8.8615s1.2324 6.3967 3.6972 8.8615c2.4648 2.4648 5.4186 3.6972 8.8615 3.6972zm-7.5117-37.559h15.023l4.5775 4.9296h7.9812c1.3302 0 2.4844 0.5086 3.4624 1.5258 0.97809 1.0172 1.4671 2.1909 1.4671 3.5211v30.047c0 1.3302-0.48904 2.5039-1.4671 3.5211-0.9781 1.0172-2.1322 1.5258-3.4624 1.5258h-40.141c-1.3302 0-2.4843-0.5086-3.4624-1.5258-0.9781-1.0172-1.4671-2.1909-1.4671-3.5211v-30.047c0-1.3302 0.48904-2.5039 1.4671-3.5211 0.9781-1.0172 2.1322-1.5258 3.4624-1.5258h7.9812zm-0.46948 25c0-2.1909 0.78247-4.0689 2.3474-5.6338s3.4429-2.3474 5.6338-2.3474 4.0688 0.78246 5.6338 2.3474 2.3474 3.4429 2.3474 5.6338c0 2.1909-0.78247 4.0688-2.3474 5.6338s-3.4429 2.3474-5.6338 2.3474-4.0689-0.78247-5.6338-2.3474-2.3474-3.4429-2.3474-5.6338z" style="fill-opacity:.98974;fill-rule:evenodd;opacity:.25"/>
</svg>
